beach.svg

<svg fill="currentColor" viewBox="0 0 24 24"><path d="M15 18.54c2.13-.33 4.5-.54 7-.54v4H5c0-.65 3.2-2.14 8-3.1v-6.5c-.84.25-1.55.81-2 1.55a3.495 3.495 0 0 0-6 0c.03-3.58 3.5-6.52 8-6.91V7a1 1 0 0 1 1-1 1 1 0 0 1 1 1v.04c4.5.39 7.96 3.33 8 6.91a3.495 3.495 0 0 0-6 0c-.45-.74-1.16-1.3-2-1.56zM7 2a5 5 0 0 1-5 5V2z"/></svg>

<svg  viewBox="0 0 24 24" fill="currentColor"><path  d="M15,18.54C17.13,18.21 19.5,18 22,18V22H5C5,21.35 8.2,19.86 13,18.9V12.4C12.16,12.65 11.45,13.21 11,13.95C10.39,12.93 9.27,12.25 8,12.25C6.73,12.25 5.61,12.93 5,13.95C5.03,10.37 8.5,7.43 13,7.04V7A1,1 0 0,1 14,6A1,1 0 0,1 15,7V7.04C19.5,7.43 22.96,10.37 23,13.95C22.39,12.93 21.27,12.25 20,12.25C18.73,12.25 17.61,12.93 17,13.95C16.55,13.21 15.84,12.65 15,12.39V18.54M7,2A5,5 0 0,1 2,7V2H7Z"/></svg>
